symbols/web/event_note/materialsymbolsrounded/event_note_fill1_24px.svg

<svg xmlns="http://www.w3.org/2000/svg" height="24" width="24"><path d="M8 14q-.425 0-.713-.288Q7 13.425 7 13t.287-.713Q7.575 12 8 12h8q.425 0 .712.287.288.288.288.713t-.288.712Q16.425 14 16 14Zm0 4q-.425 0-.713-.288Q7 17.425 7 17t.287-.712Q7.575 16 8 16h5q.425 0 .713.288.287.287.287.712t-.287.712Q13.425 18 13 18Zm-3 4q-.825 0-1.413-.587Q3 20.825 3 20V6q0-.825.587-1.412Q4.175 4 5 4h1V3q0-.425.287-.713Q6.575 2 7 2t.713.287Q8 2.575 8 3v1h8V3q0-.425.288-.713Q16.575 2 17 2t.712.287Q18 2.575 18 3v1h1q.825 0 1.413.588Q21 5.175 21 6v14q0 .825-.587 1.413Q19.825 22 19 22Zm0-2h14V10H5v10Z"/></svg>

<svg xmlns="http://www.w3.org/2000/svg" height="24" width="24"><path d="M8 14Q7.575 14 7.287 13.712Q7 13.425 7 13Q7 12.575 7.287 12.287Q7.575 12 8 12H16Q16.425 12 16.712 12.287Q17 12.575 17 13Q17 13.425 16.712 13.712Q16.425 14 16 14ZM8 18Q7.575 18 7.287 17.712Q7 17.425 7 17Q7 16.575 7.287 16.288Q7.575 16 8 16H13Q13.425 16 13.713 16.288Q14 16.575 14 17Q14 17.425 13.713 17.712Q13.425 18 13 18ZM5 22Q4.175 22 3.587 21.413Q3 20.825 3 20V6Q3 5.175 3.587 4.588Q4.175 4 5 4H6V3Q6 2.575 6.287 2.287Q6.575 2 7 2Q7.425 2 7.713 2.287Q8 2.575 8 3V4H16V3Q16 2.575 16.288 2.287Q16.575 2 17 2Q17.425 2 17.712 2.287Q18 2.575 18 3V4H19Q19.825 4 20.413 4.588Q21 5.175 21 6V20Q21 20.825 20.413 21.413Q19.825 22 19 22ZM5 20H19Q19 20 19 20Q19 20 19 20V10H5V20Q5 20 5 20Q5 20 5 20Z"/></svg>
